svgs/mega.svg

<?xml version="1.0" encoding="UTF-8" standalone="no"?>
<svg
   width="24"
   height="24"
   viewBox="0 0 24 24"
   fill="none"
   version="1.1"
   id="svg4"
   sodipodi:docname="mega.svg"
   inkscape:version="1.1.1 (3bf5ae0d25, 2021-09-20)"
   xmlns:inkscape="http://www.inkscape.org/namespaces/inkscape"
   xmlns:sodipodi="http://sodipodi.sourceforge.net/DTD/sodipodi-0.dtd"
   xmlns="http://www.w3.org/2000/svg"
   xmlns:svg="http://www.w3.org/2000/svg">
  <defs
     id="defs8" />
  <sodipodi:namedview
     id="namedview6"
     pagecolor="#ffffff"
     bordercolor="#666666"
     borderopacity="1.0"
     inkscape:pageshadow="2"
     inkscape:pageopacity="0.0"
     inkscape:pagecheckerboard="0"
     showgrid="false"
     inkscape:zoom="34.708333"
     inkscape:cx="12"
     inkscape:cy="11.985594"
     inkscape:window-width="2560"
     inkscape:window-height="1011"
     inkscape:window-x="0"
     inkscape:window-y="32"
     inkscape:window-maximized="1"
     inkscape:current-layer="svg4" />
  <path
     d="M 12,2 C 6.4766667,2 2,6.4766667 2,12 2,17.523333 6.4766667,22 12,22 17.523333,22 22,17.523333 22,12 22,6.4766667 17.523333,2 12,2 Z m 5.191667,13.537556 c 0,0.170777 -0.138334,0.309111 -0.309223,0.309111 -7.77e-4,0 -7.77e-4,0 -0.0016,0 H 15.575 15.574111 c -0.170778,0 -0.309111,-0.138334 -0.309111,-0.309111 v -8.89e-4 -4.023334 c 0,-0.03333 -0.03833,-0.05 -0.06667,-0.02744 l -2.766666,2.766667 c -0.111667,0.11 -0.265,0.178222 -0.435,0.178222 -0.17,0 -0.323334,-0.06822 -0.435,-0.178222 L 8.795,11.485889 c -0.0225,-0.02256 -0.066667,-0.0059 -0.066667,0.02744 v 4.023334 8.89e-4 c 0,0.170777 -0.1383333,0.309111 -0.3091666,0.309111 H 8.4183333 7.1125 7.1116667 C 6.9408333,15.846667 6.8025,15.708333 6.8025,15.537556 v -8.89e-4 -7.0725003 c 0,-0.1716667 0.1383333,-0.31 0.31,-0.31 H 8.0091667 C 8.18,8.1558333 8.335,8.225 8.4466667,8.3375 l 3.4416663,3.441611 c 0.02756,0.02833 0.06589,0.04589 0.108334,0.04589 0.04256,0 0.08089,-0.01756 0.108333,-0.04589 L 15.546667,8.3375 C 15.663333,8.2208333 15.817556,8.1541667 15.984222,8.1541667 H 16.88 c 0.171667,0 0.31,0.1383333 0.31,0.31 l 0.0017,7.0725003 v 8.89e-4 z"
     fill="#000000"
     id="path2"
     style="stroke-width:1.11111" />
</svg>

<svg xmlns="http://www.w3.org/2000/svg" width="24" height="24" fill="none" xmlns:v="https://vecta.io/nano"><path d="M12 2a10 10 0 1 0 0 20 10 10 0 1 0 0-20zm5.192 13.538a.31.31 0 0 1-.309.309h-1.307-.001a.31.31 0 0 1-.309-.309v-.001-4.023c0-.033-.038-.05-.067-.027l-2.767 2.767c-.112.11-.265.178-.435.178s-.323-.068-.435-.178l-2.767-2.767c-.023-.023-.067-.006-.067.027v4.023.001a.31.31 0 0 1-.309.309h-.001-1.306-.001a.31.31 0 0 1-.309-.309v-.001-7.073a.31.31 0 0 1 .31-.31h.897c.171.002.326.071.438.183l3.442 3.442a.15.15 0 0 0 .217 0l3.442-3.442c.117-.117.271-.183.438-.183h.896a.31.31 0 0 1 .31.31l.002 7.073v.001z" fill="#000"/></svg>
